public/images/hashed/69b8eb68b1dfec18f07b315c25298435.svg

<svg xmlns="http://www.w3.org/2000/svg" width="80" height="80"><defs><linearGradient id="a" x1="0%" x2="100%" y1="100%" y2="0%"><stop offset="0%" stop-color="#BD0816"/><stop offset="100%" stop-color="#FF5252"/></linearGradient></defs><g fill="none" fill-rule="evenodd"><path fill="url(#a)" d="M0 0h80v80H0z"/><path fill="#FFF" d="M14 59h52V21H14v38Zm54-39v40a1 1 0 0 1-1 1H13a1 1 0 0 1-1-1V20a1 1 0 0 1 1-1h54a1 1 0 0 1 1 1ZM44 48h15v-2H44v2Zm13-6h5v-2h-5v2Zm-13 0h8v-2h-8v2Zm-15 4a1.001 1.001 0 0 0-2 0 1.001 1.001 0 0 0 2 0Zm2 0a2.997 2.997 0 0 1-2 2.816V51h-2v-2.185A2.995 2.995 0 0 1 25 46c0-1.654 1.346-3 3-3s3 1.346 3 3Zm-12 7.993L36.994 54l.002-4H33v-2h3.996l.002-3H33v-2h3.999L37 40.007 19.006 40 19 53.993Zm3-15.992 12 .005V31c.001-2.303-2.803-4.323-6-4.325h-.004c-3.192 0-5.992 2.021-5.994 4.325L22 38.001Zm-5 16.991L17.006 39a1 1 0 0 1 1-1l1.994.001.002-7.001c.002-3.488 3.588-6.325 7.994-6.325H28c4.412.002 8.001 2.84 8 6.325v7.007l2 .001a1 1 0 0 1 1 1L38.994 55a1 1 0 0 1-1 1L18 55.992a1 1 0 0 1-1-1ZM60 36h2v-2h-2v2Zm-16 0h11v-2H44v2Z"/></g></svg>

<?xml version="1.0" encoding="UTF-8"?>
<svg width="80px" height="80px" viewBox="0 0 80 80" version="1.1" xmlns="http://www.w3.org/2000/svg" xmlns:xlink="http://www.w3.org/1999/xlink">
    <!-- Generator: Sketch 64 (93537) - https://sketch.com -->
    <title>Icon-Architecture/64/Arch_AWS-Identity-and-Access-Management_64</title>
    <desc>Created with Sketch.</desc>
    <defs>
        <linearGradient x1="0%" y1="100%" x2="100%" y2="0%" id="linearGradient-1">
            <stop stop-color="#BD0816" offset="0%"></stop>
            <stop stop-color="#FF5252" offset="100%"></stop>
        </linearGradient>
    </defs>
    <g id="Icon-Architecture/64/Arch_AWS-Identity-and-Access-Management_64" stroke="none" stroke-width="1" fill="none" fill-rule="evenodd">
        <g id="Icon-Architecture-BG/64/Security-Identity-Compliance" fill="url(#linearGradient-1)">
            <rect id="Rectangle" x="0" y="0" width="80" height="80"></rect>
        </g>
        <path d="M14,59 L66,59 L66,21 L14,21 L14,59 Z M68,20 L68,60 C68,60.552 67.553,61 67,61 L13,61 C12.447,61 12,60.552 12,60 L12,20 C12,19.448 12.447,19 13,19 L67,19 C67.553,19 68,19.448 68,20 L68,20 Z M44,48 L59,48 L59,46 L44,46 L44,48 Z M57,42 L62,42 L62,40 L57,40 L57,42 Z M44,42 L52,42 L52,40 L44,40 L44,42 Z M29,46 C29,45.449 28.552,45 28,45 C27.448,45 27,45.449 27,46 C27,46.551 27.448,47 28,47 C28.552,47 29,46.551 29,46 L29,46 Z M31,46 C31,47.302 30.161,48.401 29,48.816 L29,51 L27,51 L27,48.815 C25.839,48.401 25,47.302 25,46 C25,44.346 26.346,43 28,43 C29.654,43 31,44.346 31,46 L31,46 Z M19,53.993 L36.994,54 L36.996,50 L33,50 L33,48 L36.996,48 L36.998,45 L33,45 L33,43 L36.999,43 L37,40.007 L19.006,40 L19,53.993 Z M22,38.001 L34,38.006 L34,31 C34.001,28.697 31.197,26.677 28,26.675 L27.996,26.675 C24.804,26.675 22.004,28.696 22.002,31 L22,38.001 Z M17,54.992 L17.006,39 C17.006,38.734 17.111,38.48 17.299,38.292 C17.486,38.105 17.741,38 18.006,38 L20,38.001 L20.002,31 C20.004,27.512 23.59,24.675 27.996,24.675 L28,24.675 C32.412,24.677 36.001,27.515 36,31 L36,38.007 L38,38.008 C38.553,38.008 39,38.456 39,39.008 L38.994,55 C38.994,55.266 38.889,55.52 38.701,55.708 C38.514,55.895 38.259,56 37.994,56 L18,55.992 C17.447,55.992 17,55.544 17,54.992 L17,54.992 Z M60,36 L62,36 L62,34 L60,34 L60,36 Z M44,36 L55,36 L55,34 L44,34 L44,36 Z" id="AWS-Identity-and-Access-Management_Icon_64_Squid" fill="#FFFFFF"></path>
    </g>
</svg>
